X:12530
T:Owin at her
S:Margaret Sinkler MS, Glasgow 1710
M:4/4
L:1/4
K:Ddor
A|GGGA|FFcA|GGGA|F>ED:|
f|dddf|cAfc|ddde|f>edg|
  fdfc|AFcA|GGGA|F>ED|]


